X: 541
P: Longways for as many as will
M: 6/4
L: 1/4
K: D
(FA)A A>AB | (AF)E ^B,2G, |\
(B,E)E E2D | (B,E)E d>f e/d/ |\
c(B/A/)G FdF | fdc d2 :|
|: F/G/ |\
ef2 d2c | dB2 A>Bc |\
d>cB A2 (G/F/) (E/D/) | E(G,B,) D2 :|

